X: 1049
T: I'm a Little Teapot
B: kids songs
M:4/4
Q: 1/4=100
K:C
V:1 
"C"CD   EF    G2c2 | "F"A2 c2   "C"G4 | "F"F2  FG "C"E2E2 | "G"D2 DE "C"C4 |
"C"CD   EF    G2c2 | "F"A2 c2   "C"G4 | "F"c2    A2  "C" G2 CD|  "G"E2 D2 "C"C4||
W: Im a little teapot short and stout
W: Here is my handle
W: Here is my spout
W: 
W: When I get all steamed up
W: Hear me shout
W: Tip me over and pour me out
W: 
% abcbook-tune_id 62829c778f7c13ea7e3dd530


% abcbook-boost 0
% abcbook-tablature 
% abcbook-transpose 
% abcbook-lastupdated 1653910500565
% abcbook-soundfonts 
% abcbook-repeats 1


